X:1
T:Title
%%score { 1 | 2 }
L:1/8
Q:1/4=100
M:6/8
K:Bb
V:1 treble nm="Grand Piano"
V:2 bass 
V:1
 FGA [DB]2 [Dd] | [Dc]2 [DB] [DA]2 [DG] | [E^F]2 [EG] [GB]2 [EG] | [DF]3- [DF]2 F | F2 E D2 E | %5
w: G.~F.~Root * * * *|||||
 G2 [DF] [_D=E]2 [=DF] | [=EB]2 [A,EA] [B,EG]2 [CEA] | [A,F]6 | [DF][DG][DA] .[DB]3 | %9
w: ||||
 GAB [Ec]2 [Ee] | d2 B A2 c | [DB]6 |] %12
w: |||
V:2
 F,[F,F][F,E] [B,,F,]2 [B,,F,] | [B,,F,]2 [B,,F,] [B,,F,]2 [B,,B,] | %2
 [E,B,]2 [E,B,] [E,B,]2 [E,B,] | [B,,B,]3- [B,,B,]2 [D,B,D] | [F,A,D]2 [F,A,C] [F,A,=B,]2 [F,A,C] | %5
 [B,E]2 [B,,B,] [B,,B,]2 [B,,B,] | [C,G,]2 C, C,2 C, | F,6 | [B,,B,][B,,B,][B,,B,] .[B,,F,]3 | %9
 [E,G,E][E,G,E][E,G,E] [C,G,]2 [C,G,] | [F,F]2 [F,DF] [F,CE]2 [F,A,E] | [B,,B,]6 |] %12

